svg/design/scissors_3_line.svg

<?xml version="1.0" encoding="UTF-8"?>
<svg width="24px" height="24px" viewBox="0 0 24 24" version="1.1" xmlns="http://www.w3.org/2000/svg" xmlns:xlink="http://www.w3.org/1999/xlink">
    <title>scissors_3_line</title>
    <g id="页面-1" stroke="none" stroke-width="1" fill="none" fill-rule="evenodd">
        <g id="Design" transform="translate(-528.000000, -96.000000)">
            <g id="scissors_3_line" transform="translate(528.000000, 96.000000)">
                 <path d="M24,0 L24,24 L0,24 L0,0 L24,0 Z M12.5934901,23.257841 L12.5819402,23.2595131 L12.5108777,23.2950439 L12.4918791,23.2987469 L12.4918791,23.2987469 L12.4767152,23.2950439 L12.4056548,23.2595131 C12.3958229,23.2563662 12.3870493,23.2590235 12.3821421,23.2649074 L12.3780323,23.275831 L12.360941,23.7031097 L12.3658947,23.7234994 L12.3769048,23.7357139 L12.4804777,23.8096931 L12.4953491,23.8136134 L12.4953491,23.8136134 L12.5071152,23.8096931 L12.6106902,23.7357139 L12.6232938,23.7196733 L12.6232938,23.7196733 L12.6266527,23.7031097 L12.609561,23.275831 C12.6075724,23.2657013 12.6010112,23.2592993 12.5934901,23.257841 L12.5934901,23.257841 Z M12.8583906,23.1452862 L12.8445485,23.1473072 L12.6598443,23.2396597 L12.6498822,23.2499052 L12.6498822,23.2499052 L12.6471943,23.2611114 L12.6650943,23.6906389 L12.6699349,23.7034178 L12.6699349,23.7034178 L12.678386,23.7104931 L12.8793402,23.8032389 C12.8914285,23.8068999 12.9022333,23.8029875 12.9078286,23.7952264 L12.9118235,23.7811639 L12.8776777,23.1665331 C12.8752882,23.1545897 12.8674102,23.1470016 12.8583906,23.1452862 L12.8583906,23.1452862 Z M12.1430473,23.1473072 C12.1332178,23.1423925 12.1221763,23.1452606 12.1156365,23.1525954 L12.1099173,23.1665331 L12.0757714,23.7811639 C12.0751323,23.7926639 12.0828099,23.8018602 12.0926481,23.8045676 L12.108256,23.8032389 L12.3092106,23.7104931 L12.3186497,23.7024347 L12.3186497,23.7024347 L12.3225043,23.6906389 L12.340401,23.2611114 L12.337245,23.2485176 L12.337245,23.2485176 L12.3277531,23.2396597 L12.1430473,23.1473072 Z" id="MingCute" fill-rule="nonzero"></path>
                <path d="M6,3 C8.20914,3 10,4.79086 10,7 C10,7.55314 9.88773,8.08005 9.68472,8.55919 L12.8553,10.7792 L19.3412,6.23773 C20.246,5.60417 21.4931,5.82407 22.1266,6.72888 L14.5987,12 L22.1266,17.2711 C21.4931,18.1759 20.246,18.3958 19.3412,17.7623 L12.8553,13.2208 L9.68472,15.4408 C9.88773,15.92 10,16.4469 10,17 C10,19.2091 8.20914,21 6,21 C3.79086,21 2,19.2091 2,17 C2,14.7909 3.79086,13 6,13 C6.93105,13 7.78781,13.3181 8.46752,13.8516 L11.1118,12 L8.46752,10.1484 C7.78781,10.6819 6.93106,11 6,11 C3.79086,11 2,9.20914 2,7 C2,4.79086 3.79086,3 6,3 Z M6,15 C4.89543,15 4,15.8954 4,17 C4,18.1046 4.89543,19 6,19 C7.10457,19 8,18.1046 8,17 C8,15.8954 7.10457,15 6,15 Z M3,11 C3.55228,11 4,11.4477 4,12 C4,12.5523 3.55228,13 3,13 C2.44772,13 2,12.5523 2,12 C2,11.4477 2.44772,11 3,11 Z M7,11 C7.55228,11 8,11.4477 8,12 C8,12.5523 7.55228,13 7,13 C6.44772,13 6,12.5523 6,12 C6,11.4477 6.44772,11 7,11 Z M17,11 C17.5523,11 18,11.4477 18,12 C18,12.5523 17.5523,13 17,13 C16.4477,13 16,12.5523 16,12 C16,11.4477 16.4477,11 17,11 Z M21,11 C21.5523,11 22,11.4477 22,12 C22,12.5523 21.5523,13 21,13 C20.4477,13 20,12.5523 20,12 C20,11.4477 20.4477,11 21,11 Z M6,5 C4.89543,5 4,5.89543 4,7 C4,8.10457 4.89543,9 6,9 C7.10457,9 8,8.10457 8,7 C8,5.89543 7.10457,5 6,5 Z" id="形状" fill="#09244B"></path>
            </g>
        </g>
    </g>
</svg>

<svg xmlns="http://www.w3.org/2000/svg" width="24" height="24"><g fill="none" fill-rule="evenodd"><path d="M24 0v24H0V0h24ZM12.593 23.258l-.011.002-.071.035-.02.004-.014-.004-.071-.035c-.01-.004-.019-.001-.024.005l-.004.01-.017.428.005.02.01.013.104.074.015.004.012-.004.104-.074.012-.016.004-.017-.017-.427c-.002-.01-.009-.017-.017-.018Zm.265-.113-.013.002-.185.093-.01.01-.003.011.018.43.005.012.008.007.201.093c.012.004.023 0 .029-.008l.004-.014-.034-.614c-.003-.012-.01-.02-.02-.022Zm-.715.002a.023.023 0 0 0-.027.006l-.006.014-.034.614c0 .012.007.02.017.024l.015-.002.201-.093.01-.008.004-.011.017-.43-.003-.012-.01-.01-.184-.092Z"/><path fill="#09244B" d="M6 3a4 4 0 0 1 3.685 5.56l3.17 2.22 6.486-4.542a2 2 0 0 1 2.786.49L14.599 12l7.528 5.271a2 2 0 0 1-2.786.491l-6.486-4.541-3.17 2.22a4 4 0 1 1-1.217-1.59L11.112 12l-2.644-1.852A4 4 0 1 1 6 3Zm0 12a2 2 0 1 0 0 4 2 2 0 0 0 0-4Zm-3-4a1 1 0 1 1 0 2 1 1 0 0 1 0-2Zm4 0a1 1 0 1 1 0 2 1 1 0 0 1 0-2Zm10 0a1 1 0 1 1 0 2 1 1 0 0 1 0-2Zm4 0a1 1 0 1 1 0 2 1 1 0 0 1 0-2ZM6 5a2 2 0 1 0 0 4 2 2 0 0 0 0-4Z"/></g></svg>
